dist/svgs/crypto-icons/icons/bts.svg

<?xml version="1.0" encoding="UTF-8" standalone="yes"?>
<svg xmlns="http://www.w3.org/2000/svg" xmlns:xlink="http://www.w3.org/1999/xlink" width="512px" height="512px" viewBox="0 0 384 384" version="1.1">
  <g id="surface1">
    <path style=" stroke:none;fill-rule:nonzero;fill:rgb(0%,0%,0%);fill-opacity:1;" d="M 156.484375 240.476562 L 73.84375 157.832031 L 73.84375 257.160156 L 150.011719 257.160156 C 150.792969 251.273438 153.148438 245.582031 156.484375 240.476562 Z M 150.011719 273.453125 L 73.84375 273.453125 C 75.609375 300.347656 86.410156 324.492188 102.699219 343.535156 L 156.484375 289.15625 C 153.148438 284.648438 150.792969 279.148438 150.011719 273.453125 Z M 270.144531 175.5 C 251.097656 158.8125 226.960938 148.015625 200.0625 146.640625 L 200.0625 222.804688 C 206.148438 223.789062 211.644531 226.144531 216.359375 229.285156 Z M 228.925781 288.375 L 282.710938 342.160156 C 299.003906 323.117188 309.210938 299.367188 310.976562 273.058594 L 234.417969 273.058594 C 233.433594 278.558594 231.671875 283.660156 228.925781 288.375 Z M 234.417969 257.160156 L 310.582031 257.160156 C 308.816406 230.269531 298.015625 206.121094 281.730469 187.082031 L 227.9375 241.066406 C 231.28125 245.582031 233.433594 251.273438 234.417969 257.160156 Z M 114.285156 354.726562 C 133.324219 371.410156 157.472656 382.207031 184.363281 383.582031 L 184.363281 307.414062 C 178.277344 306.433594 172.777344 304.078125 168.070312 300.9375 Z M 200.0625 307.414062 L 200.0625 383.582031 C 226.957031 381.8125 251.101562 371.015625 270.144531 354.332031 L 216.75 300.9375 C 211.644531 304.078125 206.148438 306.433594 200.0625 307.414062 Z M 73.84375 133.296875 C 94.257812 153.710938 158.253906 218.292969 169.046875 228.898438 C 173.757812 226.144531 178.867188 223.789062 183.96875 222.808594 L 183.96875 98.351562 L 74.039062 0.00390625 C 73.84375 0.00390625 73.84375 129.566406 73.84375 133.296875 Z M 73.84375 133.296875 "/>
  </g>
</svg>

<svg xmlns="http://www.w3.org/2000/svg" viewBox="0 0 384 384"><path d="M156.484 240.477l-82.64-82.645v99.328h76.168c.781-5.887 3.136-11.578 6.472-16.683zm-6.472 32.976H73.844c1.765 26.895 12.566 51.04 28.855 70.082l53.785-54.379c-3.336-4.508-5.691-10.008-6.472-15.703zM270.145 175.5c-19.047-16.688-43.184-27.484-70.082-28.86v76.165c6.085.984 11.582 3.34 16.296 6.48zm-41.22 112.875l53.786 53.785c16.293-19.043 26.5-42.793 28.266-69.101h-76.559c-.984 5.5-2.746 10.601-5.492 15.316zm5.493-31.215h76.164c-1.766-26.89-12.566-51.039-28.852-70.078l-53.793 53.984c3.344 4.516 5.497 10.207 6.481 16.094zm-120.133 97.567c19.04 16.683 43.188 27.48 70.078 28.855v-76.168c-6.086-.98-11.586-3.336-16.293-6.476zm85.778-47.313v76.168c26.894-1.77 51.039-12.566 70.082-29.25l-53.395-53.394c-5.105 3.14-10.602 5.496-16.688 6.476zM73.843 133.297c20.415 20.414 84.41 84.996 95.204 95.601 4.71-2.753 9.82-5.109 14.922-6.09V98.353L74.039.004c-.195 0-.195 129.562-.195 133.293zm0 0"/></svg>
